X: 905
T: Alice's
R: reel
M: 4/4
K: Aminor
|:Acec dcAG|A2cA GAEA|Acec d2 e/e/g|a2ge dcAG|
Acec dcAG|A2cA GAEA|GEDE GAcd|e2ec dcAG:|
|:c2GE Gcec|d2AE Afed|c2GE Gcec|dfed cAAF|
c2GE Gcec|D2 FA Afed|c2GE Gcec|dfed cAAG:|

